X:3
I:titlefont Times-Roman 24
I:partsfont Times-Roman 20
T:Black Rogue (Jig), The
M:6/8
L:1/8
O:Trad. (15.10.2014/NS)
R: jig
K:D
|: "A"cAA "G"BGG | "A"cAA ABd | "A"cAA "G"BAG | "D"AFD D2 B|
"A"cAA "G"BGG | "A"cAA AFD | "G"~G2G ~B2B | "D"AFD D2 B :|
|: "D"~f3 "Em"~g3 | "D/F#"afd "G"cBA| "D/F#"~f3 "G"gfg | "D"afd dfg |
"D"agf "G"gfe | "D/F#"fed e/f/ed | "A"cBA "G"BAG | "D"AFD D3 :|
%%vskip
W:The Black Rogue
%%vskip
W:||: cAA BGG | cAA ABd | cAA BAG | AFD D2 B |
W: cAA BGG | cAA AFD | ~G2G ~B2B | AFD D2 B :|
W:||: ~f3 ~g3 | afd cBA| ~f3 gfg | afd dfg |
W: agf gfe | fed e2d | cBA BAG | AFD D3 :|
%%vskip
%%vskip
P:Whelan's
M:6/8
L:1/8
R:jig
K:Edor
"Em"~E3 BAF|FEB "D"AFD
%%vskip
%%begintext
|: Em   |      D  | Em     | Hm     |
|  Em   |      D  | Em     | Hm    :|
|: C      ||           | Hm     |
|  C      || Am    | Hm    :|
%%endtext
%%vskip
%%vskip
P:The Tenpenny Bit
M:6/8
L:1/8
R:jig
K:Ador
"Am"eAA eAA|"G"BAB GBd
%%vskip
%%begintext
|: Am   | G      | Am   | G       |
|  Am   | G      | G      | Am   :|
|: Am   | G      | Am   | Em     |
|  Am   | Em   | G      | Am    :|
%%endtext

